svgs/thin/right.svg

<svg xmlns="http://www.w3.org/2000/svg" viewBox="0 0 448 512"><!--! Font Awesome Pro 6.3.0 by @fontawesome - https://fontawesome.com License - https://fontawesome.com/license (Commercial License) Copyright 2023 Fonticons, Inc. --><path d="M32 320h192v96c0 12.94 7.797 24.61 19.75 29.56C247.7 447.2 251.9 448 255.1 448c8.326 0 16.51-3.25 22.63-9.375l160-160C444.9 272.4 448 264.2 448 256s-3.125-16.38-9.375-22.62l-160-160C272.5 67.25 264.3 64 255.1 64c-4.123 0-8.281 .7969-12.25 2.438C231.8 71.39 224 83.06 224 96v96H32C14.33 192 0 206.3 0 224v64C0 305.7 14.33 320 32 320zM16 224c0-8.822 7.178-16 16-16h208V96c0-6.492 3.877-12.29 9.867-14.78C251.8 80.41 253.9 80 255.1 80c4.273 0 8.291 1.666 11.31 4.689l160 160C430.3 247.7 432 251.7 432 256c0 4.271-1.666 8.289-4.689 11.31l-160 160C264.3 430.3 260.3 432 255.1 432c-2.107 0-4.17-.4102-6.121-1.219C243.9 428.3 240 422.5 240 415.1V304H32C23.18 304 16 296.8 16 288V224z"/></svg>

<svg xmlns="http://www.w3.org/2000/svg" viewBox="0 0 448 512"><!-- Font Awesome Pro 6.0.0-alpha2 by @fontawesome - https://fontawesome.com License - https://fontawesome.com/license (Commercial License) --><path d="M32 320H224V416C224 428.938 231.797 440.609 243.75 445.562C247.713 447.203 251.873 448 255.996 448C264.322 448 272.502 444.75 278.625 438.625L438.625 278.625C444.875 272.375 448 264.188 448 256S444.875 239.625 438.625 233.375L278.625 73.375C272.502 67.252 264.322 64 255.996 64C251.873 64 247.715 64.797 243.75 66.438C231.797 71.391 224 83.062 224 96V192H32C14.326 192 0 206.326 0 224V288C0 305.672 14.326 320 32 320ZM16 224C16 215.178 23.178 208 32 208H240V96C240 89.508 243.877 83.705 249.867 81.223C251.826 80.412 253.889 80 255.996 80C260.27 80 264.287 81.666 267.311 84.689L427.311 244.689C430.334 247.713 432 251.73 432 256C432 260.271 430.334 264.289 427.311 267.312L267.311 427.312C264.287 430.336 260.27 432 255.996 432C253.889 432 251.826 431.59 249.875 430.781C243.877 428.295 240 422.494 240 416V304H32C23.178 304 16 296.822 16 288V224Z"/></svg>
